material/.icons/material/comment-question.svg

<svg xmlns="http://www.w3.org/2000/svg" viewBox="0 0 24 24"><path d="M4 2h16a2 2 0 012 2v12a2 2 0 01-2 2h-6.1l-3.7 3.71c-.2.19-.45.29-.7.29H9a1 1 0 01-1-1v-3H4a2 2 0 01-2-2V4a2 2 0 012-2m8.19 3.5c-.89 0-1.6.18-2.14.54-.55.36-.83.96-.78 1.65h1.97c0-.28.1-.49.26-.63.2-.14.42-.21.69-.21.31 0 .58.08.76.26.18.17.27.39.27.69 0 .28-.08.53-.22.74-.17.22-.38.4-.64.54-.52.32-.86.6-1.07.84-.19.24-.29.58-.29 1.08h2c0-.28.05-.5.14-.68.09-.17.26-.32.52-.47.46-.21.84-.49 1.13-.85.29-.37.44-.76.44-1.2 0-.7-.27-1.26-.81-1.68-.54-.41-1.29-.62-2.23-.62M11 12v2h2v-2h-2z"/></svg>

<?xml version="1.0" encoding="UTF-8"?><!DOCTYPE svg PUBLIC "-//W3C//DTD SVG 1.1//EN" "http://www.w3.org/Graphics/SVG/1.1/DTD/svg11.dtd"><svg xmlns="http://www.w3.org/2000/svg" xmlns:xlink="http://www.w3.org/1999/xlink" version="1.1" id="mdi-comment-question" width="24" height="24" viewBox="0 0 24 24"><path d="M4,2H20A2,2 0 0,1 22,4V16A2,2 0 0,1 20,18H13.9L10.2,21.71C10,21.9 9.75,22 9.5,22V22H9A1,1 0 0,1 8,21V18H4A2,2 0 0,1 2,16V4C2,2.89 2.9,2 4,2M12.19,5.5C11.3,5.5 10.59,5.68 10.05,6.04C9.5,6.4 9.22,7 9.27,7.69H11.24C11.24,7.41 11.34,7.2 11.5,7.06C11.7,6.92 11.92,6.85 12.19,6.85C12.5,6.85 12.77,6.93 12.95,7.11C13.13,7.28 13.22,7.5 13.22,7.8C13.22,8.08 13.14,8.33 13,8.54C12.83,8.76 12.62,8.94 12.36,9.08C11.84,9.4 11.5,9.68 11.29,9.92C11.1,10.16 11,10.5 11,11H13C13,10.72 13.05,10.5 13.14,10.32C13.23,10.15 13.4,10 13.66,9.85C14.12,9.64 14.5,9.36 14.79,9C15.08,8.63 15.23,8.24 15.23,7.8C15.23,7.1 14.96,6.54 14.42,6.12C13.88,5.71 13.13,5.5 12.19,5.5M11,12V14H13V12H11Z" /></svg>
